X: 1
T: Queen Of Sluts, The
M: 4/4
L: 1/8
R: reel
K: Dmaj
|:d2 AF GABc|d2 AF GEEA|d2 AF GABc|1dfec d2d2:|2 dfec d2 cd||
|:e2 cA e2 cA|Bcde dcBA|AFGA Bcde|1dcBc d2 cd:|2dcBc d2d2||
